X:1
T: Glenbucket Castle
C:Alexander Walker
R:Strathspey
Q: 128
K:Cm
M:4/4
L:1/16
|:E2|CC3 G3F G6c2|B3F GB3 FB3 DB,3|CC3 G3F G6c2|B3G F3D CCC2 C3E|
CC3 G3F G6c2|B3F GB3 DB,3 B,3D|C3E D3F E3G F3A|G3c =B3d cC3 C2g2|
ec3 Gc3 E3c G3c|d3B F3B D3B F3d|e3c G3c E3c G3c|D3B GFED EC3 C3G|
c3d e3c d3=B G3G|A3F G3E DB3 DB,3|((3C2D2E2) ((3D2E2F2) ((3E2F2G2) ((3F2G2A2) |((3c2G2c2) ((3d2c2=B2) cC3 C2:|
